arcticons-light/symbolic/apps/info-center-symbolic.svg

<?xml version="1.0" encoding="UTF-8" standalone="no"?>
<svg
   viewBox="0 0 48 48"
   version="1.1"
   id="svg1"
   sodipodi:docname="info-center.svg"
   xmlns:inkscape="http://www.inkscape.org/namespaces/inkscape"
   xmlns:sodipodi="http://sodipodi.sourceforge.net/DTD/sodipodi-0.dtd"
   xmlns="http://www.w3.org/2000/svg"
   xmlns:svg="http://www.w3.org/2000/svg">
  <sodipodi:namedview
     id="namedview1"
     pagecolor="#ffffff"
     bordercolor="#666666"
     borderopacity="1.0"
     inkscape:showpageshadow="2"
     inkscape:pageopacity="0.0"
     inkscape:pagecheckerboard="0"
     inkscape:deskcolor="#d1d1d1" />
  <defs
     id="defs1">
    <style
       id="style1">.a{fill:none;stroke:#000;stroke-width:2px;stroke-linecap:round;stroke-linejoin:round;}</style>
  </defs>
  <path
     style="color:#000000;fill:#000000;stroke-linecap:round;stroke-linejoin:round;-inkscape-stroke:none"
     d="M 24,1.5 C 14.019132,1.5 6.4512116,7.569656 3.2128906,15.388672 -0.02543033,23.207688 1.0350679,32.851474 8.0917969,39.908203 15.148526,46.964932 24.792312,48.02543 32.611328,44.787109 40.430344,41.548788 46.5,33.980868 46.5,24 46.494231,11.588065 36.411935,1.505769 24,1.5 Z m 0,2 c 11.331713,0.00527 20.494733,9.168287 20.5,20.5 0,9.174899 -5.508202,15.979829 -12.654297,18.939453 C 24.699608,45.899077 15.992661,44.980943 9.5058594,38.494141 3.0190573,32.007339 2.1009227,23.300392 5.0605469,16.154297 8.020171,9.0082021 14.825101,3.5 24,3.5 Z"
     id="path1" />
  <path
     style="color:#000000;fill:#000000;stroke-linecap:round;stroke-linejoin:round;-inkscape-stroke:none"
     d="m 24,11.710938 c -1.92115,0 -3.5,1.578849 -3.5,3.5 0,1.92115 1.57885,3.499999 3.5,3.499999 1.92115,0 3.5,-1.578849 3.5,-3.499999 0,-1.921151 -1.57885,-3.5 -3.5,-3.5 z m 0,2 c 0.840271,0 1.5,0.659729 1.5,1.5 0,0.84027 -0.659729,1.499999 -1.5,1.499999 -0.840271,0 -1.5,-0.659729 -1.5,-1.499999 0,-0.840271 0.659729,-1.5 1.5,-1.5 z"
     id="circle1" />
  <path
     style="color:#000000;fill:#000000;stroke-linecap:round;stroke-linejoin:round;-inkscape-stroke:none"
     d="m 23.990234,20.339844 a 1,1 0 0 0 -1,1 v 13.949218 a 1,1 0 0 0 1,1 1,1 0 0 0 1,-1 V 21.339844 a 1,1 0 0 0 -1,-1 z"
     id="line1" />
</svg>

<?xml version="1.0" encoding="UTF-8"?>
<svg id="svg12" version="1.1" viewBox="0 0 48 48" xmlns="http://www.w3.org/2000/svg">
 <defs id="defs4">
  <style id="style2">.a{fill:none;stroke:#000;stroke-width:2px;stroke-linecap:round;stroke-linejoin:round;}</style>
 </defs>
 <path id="path6" d="m24 1.5c-9.9809 0-17.549 6.0697-20.787 13.889-3.2383 7.819-2.1778 17.463 4.8789 24.52 7.0567 7.0567 16.701 8.1172 24.52 4.8789s13.889-10.806 13.889-20.787c-0.005769-12.412-10.088-22.494-22.5-22.5zm0 2c11.332 0.00527 20.495 9.1683 20.5 20.5 0 9.1749-5.5082 15.98-12.654 18.939s-15.853 2.0415-22.34-4.4453c-6.4868-6.4868-7.4049-15.194-4.4453-22.34 2.9596-7.1461 9.7646-12.654 18.939-12.654z" color="#000000" stroke-linecap="round" stroke-linejoin="round" style="-inkscape-stroke:none"/>
 <path id="circle8" d="m24 11.711c-1.9212 0-3.5 1.5788-3.5 3.5 0 1.9212 1.5788 3.5 3.5 3.5s3.5-1.5788 3.5-3.5c0-1.9212-1.5788-3.5-3.5-3.5zm0 2c0.84027 0 1.5 0.65973 1.5 1.5 0 0.84027-0.65973 1.5-1.5 1.5s-1.5-0.65973-1.5-1.5c0-0.84027 0.65973-1.5 1.5-1.5z" color="#000000" stroke-linecap="round" stroke-linejoin="round" style="-inkscape-stroke:none"/>
 <path id="line10" d="m23.99 20.34a1 1 0 0 0-1 1v13.949a1 1 0 0 0 1 1 1 1 0 0 0 1-1v-13.949a1 1 0 0 0-1-1z" color="#000000" stroke-linecap="round" stroke-linejoin="round" style="-inkscape-stroke:none"/>
</svg>
